X: 42242
T: We Won't Go Home Till Morning
R: polka
M: 2/4
K: Dmajor
|:A|D>E FG|Ad A>A|BG G>B|cA A2|
D>E FG|Ad A/B/A/G/|FA GE|D2 D-:|
|:D|dA AB/c/|dA A>A|BG G>B|cA A2|
dA AB/c/|dA A/B/A/G/|FA GE|D2 D-:|

